images/global/icons/utility/clip.svg

<svg id="icon_x2F_Utility_x2F_clip-Layer_1" xmlns="http://www.w3.org/2000/svg" viewBox="0 0 48 48" enable-background="new 0 0 48 48"><title>icon/Utility/clip</title><g id="icon_x2F_Utility_x2F_clip-Symbols"><g id="icon_x2F_Utility_x2F_clip"><g id="icon_x2F_Utility_x2F_clip-Icon" transform="translate(11 14)"><g id="icon_x2F_Utility_x2F_clip-Mask"><path id="icon_x2F_Utility_x2F_clip-path-1_1_" d="M20.5 4.3s-1.1-1.2-2.6-1.2h-.3c-1.8.3-4.6 1.5-9 4.9L7.3 6.8c1.3-1.7.2-4.3-.8-5.3C5.6.5 4.3 0 3.2 0c-.7 0-1.4.2-1.9.6-.9.6-2.8 4 1.3 7.5l2.8 2.4s-4.1 3-5 4.9c-.5 1.1-.5 2.2-.1 3 .1.1.3.5.4.7.5.6 1.4 1 2.4 1 .9 0 2-.3 3.1-1.1 2.5-2.2 1.5-5 1.5-5l.9-.7 1.1.9c.2.2.5.4 1.1.4h5l-4-3.6 8.7-6.7zM5.3 6c-.2.1-.5.2-.8.2-.6 0-1.4-.5-1.9-1.2-.8-1.1-.9-2.2-.2-2.7.2-.2.5-.3.8-.3.6 0 1.4.5 1.9 1.2.8 1.1.9 2.2.2 2.8zm-.2 11.1c-.6.6-1.3 1-1.9 1-.3 0-.6-.1-.8-.3-.6-.6-.5-1.7.4-2.7.6-.6 1.3-1 1.9-1 .3 0 .6.1.8.3.7.5.5 1.7-.4 2.7zm20.2-2.6h-1.5c-.4 0-.7-.3-.7-.6s.3-.6.7-.6h1.5c.4 0 .7.3.7.6s-.3.6-.7.6zm-3.5 0h-1.5c-.4 0-.7-.3-.7-.6s.3-.6.7-.6h1.5c.4 0 .7.3.7.6-.1.3-.4.6-.7.6zm-3.6 0h-1.5c-.4 0-.7-.3-.7-.6s.3-.6.7-.6h1.5c.4 0 .7.3.7.6-.1.3-.3.6-.7.6z" fill="#384048"/></g><defs><filter id="icon_x2F_Utility_x2F_clip-Adobe_OpacityMaskFilter" filterUnits="userSpaceOnUse" x="-11" y="-14" width="48" height="48"><feColorMatrix values="1 0 0 0 0 0 1 0 0 0 0 0 1 0 0 0 0 0 1 0"/></filter></defs><mask maskUnits="userSpaceOnUse" x="-11" y="-14" width="48" height="48" id="icon_x2F_Utility_x2F_clip-mask-2"><g filter="url(#icon_x2F_Utility_x2F_clip-Adobe_OpacityMaskFilter)"><path id="icon_x2F_Utility_x2F_clip-path-1" d="M20.5 4.3s-1.1-1.2-2.6-1.2h-.3c-1.8.3-4.6 1.5-9 4.9L7.3 6.8c1.3-1.7.2-4.3-.8-5.3C5.6.5 4.3 0 3.2 0c-.7 0-1.4.2-1.9.6-.9.6-2.8 4 1.3 7.5l2.8 2.4s-4.1 3-5 4.9c-.5 1.1-.5 2.2-.1 3 .1.1.3.5.4.7.5.6 1.4 1 2.4 1 .9 0 2-.3 3.1-1.1 2.5-2.2 1.5-5 1.5-5l.9-.7 1.1.9c.2.2.5.4 1.1.4h5l-4-3.6 8.7-6.7zM5.3 6c-.2.1-.5.2-.8.2-.6 0-1.4-.5-1.9-1.2-.8-1.1-.9-2.2-.2-2.7.2-.2.5-.3.8-.3.6 0 1.4.5 1.9 1.2.8 1.1.9 2.2.2 2.8zm-.2 11.1c-.6.6-1.3 1-1.9 1-.3 0-.6-.1-.8-.3-.6-.6-.5-1.7.4-2.7.6-.6 1.3-1 1.9-1 .3 0 .6.1.8.3.7.5.5 1.7-.4 2.7zm20.2-2.6h-1.5c-.4 0-.7-.3-.7-.6s.3-.6.7-.6h1.5c.4 0 .7.3.7.6s-.3.6-.7.6zm-3.5 0h-1.5c-.4 0-.7-.3-.7-.6s.3-.6.7-.6h1.5c.4 0 .7.3.7.6-.1.3-.4.6-.7.6zm-3.6 0h-1.5c-.4 0-.7-.3-.7-.6s.3-.6.7-.6h1.5c.4 0 .7.3.7.6-.1.3-.3.6-.7.6z" fill="#fff"/></g></mask><g id="icon_x2F_Utility_x2F_clip-Color_x2F_Grayscale_x2F_Night-Sky" mask="url(#icon_x2F_Utility_x2F_clip-mask-2)"><path fill="#111" d="M0 0h48v48H0z" transform="translate(-11 -14)" id="icon_x2F_Utility_x2F_clip-Swatch"/></g></g></g></g></svg>

<?xml version="1.0" encoding="utf-8"?>
<!-- Generator: Adobe Illustrator 21.0.2, SVG Export Plug-In . SVG Version: 6.00 Build 0)  -->
<svg version="1.1" id="icon_x2F_Utility_x2F_clip-Layer_1" xmlns="http://www.w3.org/2000/svg" xmlns:xlink="http://www.w3.org/1999/xlink" x="0px" y="0px"
	 viewBox="0 0 48 48" style="enable-background:new 0 0 48 48;" xml:space="preserve">
<title>icon/Utility/clip</title>
<desc>Created with Sketch.</desc>
<g id="icon_x2F_Utility_x2F_clip-Symbols">
	<g id="icon_x2F_Utility_x2F_clip">
		<g id="icon_x2F_Utility_x2F_clip-Icon" transform="translate(11.000000, 14.000000)">
			<g id="icon_x2F_Utility_x2F_clip-Mask">
				<path id="icon_x2F_Utility_x2F_clip-path-1_1_" style="fill:#384048;" d="M20.5,4.3c0,0-1.1-1.2-2.6-1.2c-0.1,0-0.2,0-0.3,0C15.8,3.4,13,4.6,8.6,8L7.3,6.8
					c1.3-1.7,0.2-4.3-0.8-5.3C5.6,0.5,4.3,0,3.2,0C2.5,0,1.8,0.2,1.3,0.6c-0.9,0.6-2.8,4,1.3,7.5l2.8,2.4c0,0-4.1,3-5,4.9
					c-0.5,1.1-0.5,2.2-0.1,3c0.1,0.1,0.3,0.5,0.4,0.7c0.5,0.6,1.4,1,2.4,1c0.9,0,2-0.3,3.1-1.1c2.5-2.2,1.5-5,1.5-5l0.9-0.7l1.1,0.9
					c0.2,0.2,0.5,0.4,1.1,0.4h5l-4-3.6L20.5,4.3L20.5,4.3z M5.3,6C5.1,6.1,4.8,6.2,4.5,6.2C3.9,6.2,3.1,5.7,2.6,5
					C1.8,3.9,1.7,2.8,2.4,2.3C2.6,2.1,2.9,2,3.2,2c0.6,0,1.4,0.5,1.9,1.2C5.9,4.3,6,5.4,5.3,6L5.3,6z M5.1,17.1
					c-0.6,0.6-1.3,1-1.9,1c0,0,0,0,0,0c-0.3,0-0.6-0.1-0.8-0.3c-0.6-0.6-0.5-1.7,0.4-2.7c0.6-0.6,1.3-1,1.9-1c0.3,0,0.6,0.1,0.8,0.3
					C6.2,14.9,6,16.1,5.1,17.1z M25.3,14.5h-1.5c-0.4,0-0.7-0.3-0.7-0.6c0-0.3,0.3-0.6,0.7-0.6h1.5c0.4,0,0.7,0.3,0.7,0.6
					C26,14.2,25.7,14.5,25.3,14.5z M21.8,14.5h-1.5c-0.4,0-0.7-0.3-0.7-0.6c0-0.3,0.3-0.6,0.7-0.6h1.5c0.4,0,0.7,0.3,0.7,0.6
					C22.4,14.2,22.1,14.5,21.8,14.5z M18.2,14.5h-1.5c-0.4,0-0.7-0.3-0.7-0.6c0-0.3,0.3-0.6,0.7-0.6h1.5c0.4,0,0.7,0.3,0.7,0.6
					C18.8,14.2,18.6,14.5,18.2,14.5z"/>
			</g>
			<defs>
				<filter id="icon_x2F_Utility_x2F_clip-Adobe_OpacityMaskFilter" filterUnits="userSpaceOnUse" x="-11" y="-14" width="48" height="48">
					<feColorMatrix  type="matrix" values="1 0 0 0 0  0 1 0 0 0  0 0 1 0 0  0 0 0 1 0"/>
				</filter>
			</defs>
			<mask maskUnits="userSpaceOnUse" x="-11" y="-14" width="48" height="48" id="icon_x2F_Utility_x2F_clip-mask-2">
				<g style="filter:url(#icon_x2F_Utility_x2F_clip-Adobe_OpacityMaskFilter);">
					<path id="icon_x2F_Utility_x2F_clip-path-1" style="fill:#FFFFFF;" d="M20.5,4.3c0,0-1.1-1.2-2.6-1.2c-0.1,0-0.2,0-0.3,0C15.8,3.4,13,4.6,8.6,8L7.3,6.8
						c1.3-1.7,0.2-4.3-0.8-5.3C5.6,0.5,4.3,0,3.2,0C2.5,0,1.8,0.2,1.3,0.6c-0.9,0.6-2.8,4,1.3,7.5l2.8,2.4c0,0-4.1,3-5,4.9
						c-0.5,1.1-0.5,2.2-0.1,3c0.1,0.1,0.3,0.5,0.4,0.7c0.5,0.6,1.4,1,2.4,1c0.9,0,2-0.3,3.1-1.1c2.5-2.2,1.5-5,1.5-5l0.9-0.7
						l1.1,0.9c0.2,0.2,0.5,0.4,1.1,0.4h5l-4-3.6L20.5,4.3L20.5,4.3z M5.3,6C5.1,6.1,4.8,6.2,4.5,6.2C3.9,6.2,3.1,5.7,2.6,5
						C1.8,3.9,1.7,2.8,2.4,2.3C2.6,2.1,2.9,2,3.2,2c0.6,0,1.4,0.5,1.9,1.2C5.9,4.3,6,5.4,5.3,6L5.3,6z M5.1,17.1
						c-0.6,0.6-1.3,1-1.9,1c0,0,0,0,0,0c-0.3,0-0.6-0.1-0.8-0.3c-0.6-0.6-0.5-1.7,0.4-2.7c0.6-0.6,1.3-1,1.9-1
						c0.3,0,0.6,0.1,0.8,0.3C6.2,14.9,6,16.1,5.1,17.1z M25.3,14.5h-1.5c-0.4,0-0.7-0.3-0.7-0.6c0-0.3,0.3-0.6,0.7-0.6h1.5
						c0.4,0,0.7,0.3,0.7,0.6C26,14.2,25.7,14.5,25.3,14.5z M21.8,14.5h-1.5c-0.4,0-0.7-0.3-0.7-0.6c0-0.3,0.3-0.6,0.7-0.6h1.5
						c0.4,0,0.7,0.3,0.7,0.6C22.4,14.2,22.1,14.5,21.8,14.5z M18.2,14.5h-1.5c-0.4,0-0.7-0.3-0.7-0.6c0-0.3,0.3-0.6,0.7-0.6h1.5
						c0.4,0,0.7,0.3,0.7,0.6C18.8,14.2,18.6,14.5,18.2,14.5z"/>
				</g>
			</mask>
			<g id="icon_x2F_Utility_x2F_clip-Color_x2F_Grayscale_x2F_Night-Sky" style="mask:url(#icon_x2F_Utility_x2F_clip-mask-2);">
				<g id="icon_x2F_Utility_x2F_clip-Swatch" transform="translate(-11.000000, -14.000000)">
					<rect style="fill:#111111;" width="48" height="48"/>
				</g>
			</g>
		</g>
	</g>
</g>
</svg>
